assets/Framed picture/Flat/framed_picture_flat.svg

<svg width="32" height="32" viewBox="0 0 32 32" fill="none" xmlns="http://www.w3.org/2000/svg">
<path d="M2 2L16 5L30 2V30L16 27L2 30V2Z" fill="#D3883E"/>
<path d="M30 2H2L16 16L30 2Z" fill="#F3AD61"/>
<path d="M30 30H2L16 16L30 30Z" fill="#B97028"/>
<path d="M5 5H27V9.16406L18 22L5 19L5.00009 16L6.5 13L5.00018 10L5 5Z" fill="#AEDDFF"/>
<path d="M24.6669 10.1139C25.2169 9.43442 26.0577 9 27 9V15C26.2275 15 25.5232 14.708 24.9914 14.2284C24.8747 15.7786 23.58 17 22 17C20.3431 17 19 15.6569 19 14C19 12.3431 20.3431 11 22 11C22.088 11 22.1751 11.0038 22.2611 11.0112C22.6053 10.4072 23.2551 10 24 10C24.2339 10 24.4583 10.0401 24.6669 10.1139Z" fill="white"/>
<path d="M5 16V10C5.98142 10 6.85278 10.4713 7.40011 11.1999C7.56722 11.0744 7.77493 11 8 11C8.55228 11 9 11.4477 9 12C10.1046 12 11 12.8954 11 14C11 15.1046 10.1046 16 9 16H5Z" fill="white"/>
<path d="M8 17.4999L5 19V27H27V12C25.5 12 24.5 12.5 23 14L18.5 18.5C17.5 19.5001 17 20 16 19.5L12 17.4999C10.4 16.6999 8.83333 16.9999 8 17.4999Z" fill="#14A085"/>
<path d="M27 26.8115V27H5V26.8114C7.56366 24.232 11.538 22.5 16 22.5C20.4619 22.5 24.4363 24.232 27 26.8115Z" fill="#96C34A"/>
<path d="M19.0561 10.1849C19.3177 10.0678 19.5 9.80518 19.5 9.5C19.5 9.19482 19.3177 8.93221 19.0561 8.8151C19.2241 8.58288 19.2507 8.26431 19.0981 8.00002C18.9455 7.73571 18.6563 7.59943 18.3712 7.62883C18.4006 7.34371 18.2643 7.05454 18 6.90195C17.7357 6.74936 17.4171 6.77591 17.1849 6.94393C17.0678 6.68229 16.8052 6.5 16.5 6.5C16.1948 6.5 15.9322 6.6823 15.8151 6.94394C15.5829 6.77591 15.2643 6.74936 15 6.90195C14.7357 7.05454 14.5994 7.3437 14.6288 7.62882C14.3437 7.59945 14.0546 7.73574 13.902 8.00002C13.7494 8.2643 13.7759 8.58286 13.9439 8.81508C13.6823 8.93218 13.5 9.1948 13.5 9.5C13.5 9.8052 13.6823 10.0678 13.9439 10.1849C13.7759 10.4171 13.7494 10.7357 13.9019 11C14.0545 11.2643 14.3437 11.4006 14.6288 11.3712C14.5994 11.6563 14.7357 11.9455 15 12.0981C15.2643 12.2507 15.5829 12.2241 15.8151 12.0561C15.9322 12.3177 16.1948 12.5 16.5 12.5C16.8052 12.5 17.0678 12.3177 17.1849 12.0561C17.4171 12.2241 17.7357 12.2507 18 12.0981C18.2643 11.9455 18.4006 11.6563 18.3712 11.3712C18.6563 11.4006 18.9455 11.2643 19.0981 11C19.2507 10.7357 19.2241 10.4171 19.0561 10.1849Z" fill="#FF822D"/>
<path d="M18.7049 9.49989C18.7049 10.7174 17.7179 11.7044 16.5004 11.7044C15.2829 11.7044 14.2959 10.7174 14.2959 9.49989C14.2959 8.28239 15.2829 7.29541 16.5004 7.29541C17.7179 7.29541 18.7049 8.28239 18.7049 9.49989Z" fill="#F9C23C"/>
</svg>

<svg xmlns="http://www.w3.org/2000/svg" width="32" height="32" fill="none"><path fill="#D3883E" d="m2 2 14 3 14-3v28l-14-3-14 3V2Z"/><path fill="#F3AD61" d="M30 2H2l14 14L30 2Z"/><path fill="#B97028" d="M30 30H2l14-14 14 14Z"/><path fill="#AEDDFF" d="M5 5h22v4.164L18 22 5 19v-3l1.5-3L5 10V5Z"/><path fill="#fff" d="M24.667 10.114A2.994 2.994 0 0 1 27 9v6a2.99 2.99 0 0 1-2.009-.772 3 3 0 1 1-2.73-3.217 2 2 0 0 1 2.406-.897ZM5 16v-6c.981 0 1.853.471 2.4 1.2A1 1 0 0 1 9 12a2 2 0 1 1 0 4H5Z"/><path fill="#14A085" d="M8 17.5 5 19v8h22V12c-1.5 0-2.5.5-4 2l-4.5 4.5c-1 1-1.5 1.5-2.5 1l-4-2c-1.6-.8-3.167-.5-4 0Z"/><path fill="#96C34A" d="M27 26.811V27H5v-.189c2.564-2.579 6.538-4.311 11-4.311s8.436 1.732 11 4.311Z"/><path fill="#FF822D" d="M19.056 10.185a.75.75 0 0 0 0-1.37.75.75 0 0 0-.685-1.186.75.75 0 0 0-1.186-.685.75.75 0 0 0-1.37 0 .75.75 0 0 0-1.186.685.75.75 0 0 0-.685 1.186.75.75 0 0 0 0 1.37.75.75 0 0 0 .685 1.186.75.75 0 0 0 1.186.685.75.75 0 0 0 1.37 0 .75.75 0 0 0 1.186-.685.75.75 0 0 0 .685-1.186Z"/><path fill="#F9C23C" d="M18.705 9.5a2.205 2.205 0 1 1-4.41 0 2.205 2.205 0 0 1 4.41 0Z"/></svg>
